X: 23890
T: Lobsters In The Pot
R: polka
M: 2/4
K: Eminor
EF|:GF GE|D2 B/c/d|eg fg|e2 AB|
cB cB|A2 EF|GF GE|1 E2 EF:|2 E2 eA||
|:eA eA|B/c/d gg|d2 dG|dG dG|
A/B/c ff|c2 e^d|e^d e^d|1 e2 e^c:|2 e2 EF||

